X: 1
T: Belfast, The
M: 4/4
L: 1/8
K: D
ag|:f/a/f df AdFA|DFAd f/g/f ef|gbeg ceAF|GABG E2 ag|
f/a/f df AdFA|DFAd f/g/f ef|gfed cABc|1 d2 f2 d2 ag:|2 d2 f2 d2 D/E/F||
GFGA Bcde|fgfe dcdB|A2f2 fe f2|G2 e2 ed eF|
GFGA Bcde|fgfe dcdB|Afed cABc|1 d2 f2 d2 D/E/F:|2 d2 f2 d2 ag||
f/g/f e/f/e d/e/d c/d/c|B/c/B A/B/A G2 ba|g/a/g f/g/f e/f/e d/e/d|c/d/c B/c/B A2 ag|
f/g/f e/f/e d/e/d c/d/c|B/c/B A/B/A G/A/G F/G/F|Eged cA A/B/c|d2 f2 d2 ag:||
